X:1
T:Title
%%score { ( 1 4 ) | ( 2 3 ) }
L:1/8
M:9/8
K:Ab
V:1 treble nm="Grand Piano"
V:4 treble 
V:2 bass 
V:3 bass 
V:1
 z9[Q:1/4=100] | [Ec]2 [Ec] [CA]3 .E3 | [Ec]2 [Ec] [CA]3 z3 | [ce]6 [df]2 d |[M:3/4] [Ac]6 | %5
[M:3/8] z3 |[M:9/8] [Ec]2 [Ec] [CA]3 .E3 | [Ec]2 [Ec] [CA]3 z2 c | [GB]6 [=Dc]2 B |[M:3/4] E6 | %10
[M:3/8] z3 |[M:9/8] d6 .d3 | [Ae]3 [Ec]3 E2 E | d6 z3 |[M:3/4] [EAc]6 |[M:3/8] c2 B | %16
[M:9/8] =A6 z3 | [Fd]3 [Ff]3 [Fe]2 [Fd] | [Ac]2 [Ae] [Ac]2 [Ae] [GB]2 [Ge] |[M:3/4] [EA]6 |] %20
V:2
 z3 z3 E2 E | A,,C,E, A,3 z2 E | A,,C,E, A,3[K:treble] EAc | E,A,C E3 z2[K:treble] B | %4
[M:3/4][K:bass] A,,E, A, .C3 |[M:3/8] E2 E |[M:9/8] A,,C,E, A,3 z2 E | z3 z3[K:treble] .A3 | %8
 B,,E,G, B,3 z2 =D |[M:3/4] [E,G,]B,, G,, .E,,3 |[M:3/8] E2 E | %11
[M:9/8] [E,B,]2 [E,B,] [E,B,]2 [E,B,] [E,B,]2 [E,B,] | [A,C]3 [A,,A,]3 z3 | %13
 [E,B,]2 [E,B,] [E,B,]2 [E,B,] z[K:treble] eE, |[M:3/4] A,6 |[M:3/8] z3 | %16
[M:9/8][K:bass] [F,CF]2 [F,C] [F,C]2 [F,CF] F-[D,B,F][C,=A,] | [B,,B,]3 [B,D]3 [C,=A,]2 [D,B,] | %18
 [E,E]2 [E,C] [E,E]2 [E,C] [E,D]2 [E,D] |[M:3/4] [A,C]6 |] %20
V:3
 x9 | z3 z3 E,3 | x6[K:treble] x3 | z3 z3 E,3[K:treble] |[M:3/4][K:bass] x6 |[M:3/8] x3 | %6
[M:9/8] z3 z3 E,3 | A,,C,E, A,3[K:treble] z BA | z3 z3 [B,,A,]3 |[M:3/4] x6 |[M:3/8] x3 | %11
[M:9/8] x9 | x9 | z3 z3 .[E,B,]3[K:treble] |[M:3/4] x6 |[M:3/8] x3 |[M:9/8][K:bass] z3 z3 .[E,C]3 | %17
 x9 | x9 |[M:3/4] x6 |] %20
V:4
 x9 | x9 | x9 | x9 |[M:3/4] x6 |[M:3/8] x3 |[M:9/8] x9 | x9 | x9 |[M:3/4] x6 |[M:3/8] x3 | %11
[M:9/8] G2 G G2 [Gd] G-[Gc][Gd] | x9 | G2 G G2 [Gd] .[Gd]2 [EGd] |[M:3/4] x6 |[M:3/8] x3 | %16
[M:9/8] z2 F F2 =A AB[Fc] | x9 | x9 |[M:3/4] x6 |] %20

